X: 47
T: Dusty Miller
%%VWML:Wrights-3753-p24-0
F: http://www.vwml.org/record/Wrights/3753/p24
%R: jig
B: Daniel Wright "Wright's Compleat Collection of Celebrated Country Dances" 1740 p.24
S: http://library.efdss.org/cgi-bin/dancebooks.cgi
Z: 2014 John Chambers <jc:trillian.mit.edu>
N: Repeats added to match the "Each strain twice".
M: 3/2
L: 1/4
K: G
%-------------------------
|: B>cd BAG | DAA cBA | B>cd BAG | DGG BAG :|\
|: B>cd efg | aAA cBA | B>cd eTf3/e//f// | g>ag BAG :| %-------------------------
%%center Each strain twice
%%begintext align
%% The 1st Cu. lead thro' the 2d Cu. & on the outside
%% below the 3d Cu. & turn .| the 1st Cu. lead thro' the 3d Cu. %% on the outside of the 2d Cu. to the Top and turn :| the
%% 1st Man turn the 3d Wo. as at the same time does his Partner %% the 2d Man, then meet & turn .| do the same at the other
%% Corners :| 1st Man foot it with the 3d Wo. as at the
%% same time doth his Partner with the 2d Man & turn
%% .| do the same at the other Corners :| then the Man Heys
%% on the Wo's side, as at the same time doth his Partner
%% on the Man's side 'till they come into the 2d Cu.
%% Place and turn :|
%%endtext
%-------------------------
%%sep 2 4 300
T: Butter'd Pease
T: Longways for as many as will.
%R: reel
B: Daniel Wright "Wright's Compleat Collection of Celebrated Country Dances" 1740 p.24
S: http://library.efdss.org/cgi-bin/dancebooks.cgi
Z: 2014 John Chambers <jc:trillian.mit.edu>
M: C|
L: 1/8
K: G
%-------------------------
|:\
B2d2 d2cB | c2e2 e4 | B2d2 d2cB | c2A2 A4 |\
B2d2 d2cB | c2e2 e4 | BcdB ABcA | B2G2 G4 :|
|:\
B2d2 d2ef | gfga g4 | B2d2 d2cB | c2A2 A4 |\
B2d2 d2ef | gfga g4 | BcdB ABcA | B2G2 G4 :|
%-------------------------
%%center Each strain twice.
%%begintext align
%% The 1st Man and Wo. set, Foot it & turn .| The 1st Man
%% does the same with the 2d Wo. as at the same time doth
%% his Partner with the 2d Man .| 1st Cu. cross over below
%% the 3d Cu. .| Then slip up the middle to the Top,
%% Foot it and cast off.
%%endtext
%-------------------------
%%sep 2 4 300
